svg/u2049.svg

<svg viewBox="0 0 128 128" xmlns="http://www.w3.org/2000/svg">
  <path d="M31.9,88.1l1.8-80c0.1-2.2-1.8-4.1-4-4.1H18c-2.3,0-4.1,1.9-4,4.1l1.8,80c0.1,2.2,1.8,3.9,4,3.9h8 C30,92,31.8,90.3,31.9,88.1z" fill="#F44336"/>
  <circle cx="78" cy="112" r="12" fill="#CC3333"/>
  <circle cx="76.3" cy="112" r="10.3" fill="#F44336"/>
  <g>
    <path d="M26.1,50c0.3-1.9-0.5-26.2-0.5-26.2s0.1-3.5-2.8-3.8 C20,19.7,19,22.3,19,24.1c0,1.8,0.4,21.5,0.6,23.3c0.1,1.8,1.9,3.7,3.6,4.2S25.9,51.4,26.1,50z" opacity="0.2" fill="#FFFFFF" enable-background="new "/>
    <circle cx="21.7" cy="13.4" r="3.3" opacity="0.2" fill="#FFFFFF" enable-background="new "/>
  </g>
  <circle cx="26.2" cy="112" r="12" fill="#CC3333"/>
  <circle cx="24.5" cy="112" r="10.3" fill="#F44336"/>
  <path d="M18.6,108.4c1.2-1.8,3.8-3.3,6.5-3.7c0.7-0.1,1.3-0.1,1.9,0.1 c0.4,0.2,0.8,0.6,0.5,1c-0.2,0.4-0.7,0.5-1.1,0.6c-2.5,0.7-4.8,2.4-6.2,4.4c-0.5,0.8-1.4,2.9-2.4,2.4 C16.8,112.5,17.1,110.6,18.6,108.4z" opacity="0.2" fill="#FFFFFF" enable-background="new "/>
  <path d="M70.5,108.4c1.2-1.8,3.8-3.3,6.5-3.7c0.7-0.1,1.3-0.1,1.9,0.1 c0.4,0.2,0.8,0.6,0.5,1c-0.2,0.4-0.7,0.5-1.1,0.6c-2.5,0.7-4.8,2.4-6.2,4.4c-0.5,0.8-1.4,2.9-2.4,2.4 C68.7,112.5,69,110.6,70.5,108.4z" opacity="0.2" fill="#FFFFFF" enable-background="new "/>
  <path d="M61.6,24.3c-2.1,2-3.4,4.4-4,7.4c-0.3,1.9-2,3.2-3.9,3.2h6.9c1.9,0,3.6-1.3,3.9-3.2 c0.5-3,1.9-5.4,4-7.4c2.1-1.9,4.7-3.1,7.8-3.6c-1.1-0.2-2.3-0.3-3.5-0.3C68.1,20.5,64.4,21.8,61.6,24.3z" fill="#CC3333"/>
  <path d="M104.9,12.2C98.9,6.7,90.4,4,79.6,4c-1.2,0-2.3,0-3.4,0.1c9.1,0.5,16.4,3.2,21.8,8.1 c6.1,5.5,9.1,13.2,9.1,23c0,8.8-4.1,17.4-12.2,25.9l-9.8,9.6c-0.1,0.1-0.2,0.2-0.3,0.3c-2.9,3.4-4.6,8-5.2,13.9 c-0.2,2-1.9,3.6-4,3.6h6.9c2,0,3.8-1.6,4-3.6C87,79,88.8,74.4,91.7,71c0.1-0.1,0.2-0.2,0.3-0.3l9.8-9.6C109.9,52.6,114,44,114,35.2 C114,25.4,111,17.7,104.9,12.2z" fill="#CC3333"/>
  <path d="M79.6,85c0.5-5.9,2.3-10.5,5.2-13.9c0.1-0.1,0.2-0.2,0.3-0.3l9.8-9.6c8.2-8.5,12.2-17.1,12.2-25.9 c0-9.8-3-17.5-9.1-23c-5.4-4.9-12.6-7.6-21.8-8.1C67.3,4.7,60,7.4,54.4,12.3C49,17,45.9,23,44.9,30.5c-0.3,2.4,1.6,4.4,4,4.4h4.8 c1.9,0,3.6-1.3,3.9-3.2c0.5-3,1.9-5.4,4-7.4c2.8-2.6,6.6-3.9,11.2-3.9c1.2,0,2.4,0.1,3.5,0.3c1.1-0.2,2.2-0.3,3.4-0.3 c4.8,0,8.5,1.3,11,4s3.8,6.5,3.8,11.5c0,3.8-1.1,7.4-3.2,10.6c-1.4,2.2-4.7,5.8-10,10.9c-5.2,5.1-8.8,9.8-10.5,14 c-1.4,3.4-2.3,7.7-2.5,12.9c-0.1,2.3,1.7,4.2,4,4.2l0,0h3.5C77.7,88.6,79.4,87,79.6,85z" fill="#F44336"/>
  <path d="M55.1,15.9c3.4-4.2,9.9-7.2,16.4-7.6c1.6-0.1,3.2,0,4.5,0.7 c1,0.5,1.7,1.6,1,2.6c-0.6,0.8-1.8,1.1-2.8,1.3c-6.1,1.2-12,4.7-15.9,9.3c-1.5,1.8-4,6.8-6.2,5.2C49.7,25.5,50.8,21,55.1,15.9z" opacity="0.2" fill="#FFFFFF" enable-background="new "/>
  <path d="M34,4h-4.3c2.3,0,4.1,1.9,4,4.1l-1.8,80c-0.1,2.2-1.8,3.9-4,3.9h4.3c2.2,0,4-1.7,4-3.9l1.8-80 C38.1,5.9,36.2,4,34,4z" fill="#CC3333"/>
</svg>

<svg viewBox="0 0 128 128" xmlns="http://www.w3.org/2000/svg">
  <defs/>
  <path d="M31.9,88.1 L33.7,8.1 C33.8,5.9 31.9,4 29.7,4 L18,4 C15.7,4 13.9,5.9 14,8.1 L15.8,88.1 C15.9,90.3 17.6,92 19.8,92 L27.8,92 C30,92 31.8,90.3 31.9,88.1 Z" fill="#F44336"/>
  <path d="M90,112 A12 12 0 1 1 66,112 A12 12 0 1 1 90,112 Z" fill="#CC3333"/>
  <path d="M86.6,112 A10.3 10.3 0 1 1 66,112 A10.3 10.3 0 1 1 86.6,112 Z" fill="#F44336"/>
  <path d="M26.1,50 C26.4,48.1 25.6,23.8 25.6,23.8 C25.6,23.8 25.7,20.3 22.8,20 C20,19.7 19,22.3 19,24.1 C19,25.9 19.4,45.6 19.6,47.4 C19.7,49.2 21.5,51.1 23.2,51.6 C24.9,52.1 25.9,51.4 26.1,50 Z" fill="#FFFFFF" opacity="0.2"/>
  <path d="M25,13.4 A3.3 3.3 0 1 1 18.4,13.4 A3.3 3.3 0 1 1 25,13.4 Z" fill="#FFFFFF" opacity="0.2"/>
  <path d="M38.2,112 A12 12 0 1 1 14.2,112 A12 12 0 1 1 38.2,112 Z" fill="#CC3333"/>
  <path d="M34.8,112 A10.3 10.3 0 1 1 14.2,112 A10.3 10.3 0 1 1 34.8,112 Z" fill="#F44336"/>
  <path d="M18.6,108.4 C19.8,106.6 22.4,105.1 25.1,104.7 C25.8,104.6 26.4,104.6 27,104.8 C27.4,105 27.8,105.4 27.5,105.8 C27.3,106.2 26.8,106.3 26.4,106.4 C23.9,107.1 21.6,108.8 20.2,110.8 C19.7,111.6 18.8,113.7 17.8,113.2 C16.8,112.5 17.1,110.6 18.6,108.4 Z" fill="#FFFFFF" opacity="0.2"/>
  <path d="M70.5,108.4 C71.7,106.6 74.3,105.1 77,104.7 C77.7,104.6 78.3,104.6 78.9,104.8 C79.3,105 79.7,105.4 79.4,105.8 C79.2,106.2 78.7,106.3 78.3,106.4 C75.8,107.1 73.5,108.8 72.1,110.8 C71.6,111.6 70.7,113.7 69.7,113.2 C68.7,112.5 69,110.6 70.5,108.4 Z" fill="#FFFFFF" opacity="0.2"/>
  <path d="M61.6,24.3 C59.5,26.3 58.2,28.7 57.6,31.7 C57.3,33.6 55.6,34.9 53.7,34.9 L60.6,34.9 C62.5,34.9 64.2,33.6 64.5,31.7 C65,28.7 66.4,26.3 68.5,24.3 C70.6,22.4 73.2,21.2 76.3,20.7 C75.2,20.5 74,20.4 72.8,20.4 C68.1,20.5 64.4,21.8 61.6,24.3 Z" fill="#CC3333"/>
  <path d="M104.9,12.2 C98.9,6.7 90.4,4 79.6,4 C78.4,4 77.3,4 76.2,4.1 C85.3,4.6 92.6,7.3 98,12.2 C104.1,17.7 107.1,25.4 107.1,35.2 C107.1,44 103,52.6 94.9,61.1 L85.1,70.7 C85,70.8 84.9,70.9 84.8,71 C81.9,74.4 80.2,79 79.6,84.9 C79.4,86.9 77.7,88.5 75.6,88.5 L82.5,88.5 C84.5,88.5 86.3,86.9 86.5,84.9 C87,79 88.8,74.4 91.7,71 C91.8,70.9 91.9,70.8 92,70.7 L101.8,61.1 C109.9,52.6 114,44 114,35.2 C114,25.4 111,17.7 104.9,12.2 Z" fill="#CC3333"/>
  <path d="M79.6,85 C80.1,79.1 81.9,74.5 84.8,71.1 C84.9,71 85,70.9 85.1,70.8 L94.9,61.2 C103.1,52.7 107.1,44.1 107.1,35.3 C107.1,25.5 104.1,17.8 98,12.3 C92.6,7.4 85.4,4.7 76.2,4.2 C67.3,4.7 60,7.4 54.4,12.3 C49,17 45.9,23 44.9,30.5 C44.6,32.9 46.5,34.9 48.9,34.9 L53.7,34.9 C55.6,34.9 57.3,33.6 57.6,31.7 C58.1,28.7 59.5,26.3 61.6,24.3 C64.4,21.7 68.2,20.4 72.8,20.4 C74,20.4 75.2,20.5 76.3,20.7 C77.4,20.5 78.5,20.4 79.7,20.4 C84.5,20.4 88.2,21.7 90.7,24.4 C93.2,27.1 94.5,30.9 94.5,35.9 C94.5,39.7 93.4,43.3 91.3,46.5 C89.9,48.7 86.6,52.3 81.3,57.4 C76.1,62.5 72.5,67.2 70.8,71.4 C69.4,74.8 68.5,79.1 68.3,84.3 C68.2,86.6 70,88.5 72.3,88.5 L72.3,88.5 L75.8,88.5 C77.7,88.6 79.4,87 79.6,85 Z" fill="#F44336"/>
  <path d="M55.1,15.9 C58.5,11.7 65,8.7 71.5,8.3 C73.1,8.2 74.7,8.3 76,9 C77,9.5 77.7,10.6 77,11.6 C76.4,12.4 75.2,12.7 74.2,12.9 C68.1,14.1 62.2,17.6 58.3,22.2 C56.8,24 54.3,29 52.1,27.4 C49.7,25.5 50.8,21 55.1,15.9 Z" fill="#FFFFFF" opacity="0.2"/>
  <path d="M34,4 L29.7,4 C32,4 33.8,5.9 33.7,8.1 L31.9,88.1 C31.8,90.3 30.1,92 27.9,92 L32.2,92 C34.4,92 36.2,90.3 36.2,88.1 L38,8.1 C38.1,5.9 36.2,4 34,4 Z" fill="#CC3333"/>
</svg>
